X: 241
P: Cotillon
M: 6/8
L: 1/8
K: G
|:\
d2d d2c | B2B B2A | G2G AGA | B2B B2z |\
d2d d2c | B2B B2A | G2G AGA | G3- HG2 ::
b2b bag | a2d def | g2g gfe | f2B Bcd |\
e2e edc | d2G GAB | cdc BcB | A3- A2 |]
a2a a2g | f2f f2e | d2d Tede | (d3- d2 G//A//B//c//) "_da Capo"y0|]

